X: 179
T: Devonshire House
P: Longways for as many as will
%R: jig
B: "The Dancing-Master: Containing Directions and Tunes for Dancing" printed by W. Pearson for John Walsh, London ca. 1709
S: 7: DMDfD http://digital.nls.uk/special-collections-of-printed-music/pageturner.cfm?id=89751228 p.11
Z: 2013 John Chambers <jc:trillian.mit.edu>
N: Repeats added to satisfy the "Each strain twice" instruction.
M: 6/4
L: 1/4
K: Bb
% - - - - - - - - - - - - - - - - - - - - - - - - -
d/c/ |\
B2f d>cB | fga b2a | g>ab a>gf | f2=e f2 :|\
|: e/d/ |\
e2f g>fe |
dec f2e | d>cB ABG | G2F F2B |\
G>FG E2e | c>Bc F2f | d>cB B2A | B3- B2 :|
% - - - - - - - - - - - - - - - - - - - - - - - - -
%%center Each Strain is to be play'd twice over.
%%begintext align
%% First cu. cast off, the 2 cu. leading up, change places at the same time; 2. cu. cast down, 1. cu. lead
%% up, changing places as before, men being on the wo. side, hands half round, break hands all abreast
%% lead up; 1. man cross over with the 2. wo. 2. man and 1. wo. do the like, turn single, all four cross over,
%% all four turn single, right and left into the 2.. cu. place.
%%endtext
%%center The Second Part.
%%begintext align
%% First cu. lead down between the 2. and cast up into their own place; the 2. cu. lead between the 1.
%% and cast down into their own places; 1. man cross over with the 2. wo. cross all four, turn your
%% own, the 1. man being in the 2. man's place, and the 2. man being in the 2. wo. place; cross over
%% with the 1. wo then cross over all four, and turn your own.
%%endtext
%%sep 1 8 500

%%sep 1 1 500
%%sep 1 1 500
